X:1
T: Miss Janet McKerrell's Reel
M: C|
B: James Campbell's Collection 1798
Z: source from Highland Music Trust, chords by Gary Whaley
L: 1/8
K:Eb
G [|: "Eb" E2 B,E G,B,EG | "Ab" (F/G/A)cA GBDF | "Eb" G2 B,E G,B,EG | "Ab" AFBG "Eb" E/E/EE :|]
(3(B/c/d/ [| "Eb" e)BeB GEGE | "Ab" cAcA "Eb" BGEB, | \
"Ab" CEAc "Bb"Bdfa | "Eb" gedf e/e/ee(3(B/c/d/ |
| "Eb" e)BeB GEGE |"Ab" cAcA "Eb"BGEB, | \
"Ab" CA,CE "Bb"DB,DF | "Ab"AF"Eb"ED E/E/EE |]
